X: 61
T: Tiao cai
L: 1/8
M: 2/4
K: F
c2c d [I:setbarnb 1]| 
c2G A | 
c3d | 
c4 | 
f2A G | 
F3G | 
F4 | 
G2c2 | 
G A G F | 
G A G F | 
E3F | 
G3F | 
E F G A | 
G A G D | 
C4 |]

@@@ Tune index: 8935
